X:1
T: Round O
N:
C:
S:Play  3  times
A:
O:
R:
M:4/4
K:Am
I:speed 200
%W: A1
% voice 1 (1 lines, 37 notes)
K:Am
M:4/4
L:1/16
e2 d2 |c2 B2 A2 c2 B4 ^G4 |A8 B8 |c4 d2 c2 B2 c2 A2 c2 |B8 E4 e2 d2 |c2 B2 A2 c2 B4 ^G4 |A8 B8 |c4 d2 c2 B6 A2 |A12 e2 d2 |
%W: A2
% voice 1 (1 lines, 35 notes)
c2 B2 A2 c2 B4 ^G4 |A8 B8 |c4 d2 c2 B2 c2 A2 c2 |B8 E4 e2 d2 |c2 B2 A2 c2 B4 ^G4 |A8 B8 |c4 d2 c2 B6 A2 |A12 a2 g2 |
%W: B
% voice 1 (1 lines, 36 notes)
a4 e4 f4 g4 |f8 e4 f2 e2 |d4 c4 B4 c4 |c6 B2 A4 e2 f2 |g4 c4 g4 a2 g2 |f4 A4 f4 g2 f2 |e4 d2 c2 d4 B4 |c8 c4 e2 d2 |
%W: C
% voice 1 (1 lines, 34 notes)
c2 B2 A2 c2 B4 ^G4 |A8 B8 |c4 d2 c2 B2 c2 A2 c2 |B8 E4 e2 d2 |c2 B2 A2 c2 B4 ^G4 |A8 B8 |c4 d2 c2 B6 A2 |A12 e4 |
%W: D
% voice 1 (1 lines, 38 notes)
a4 ^g4 a4 e2 f2 |g6 e2 d4 e2 f2 |g4 e4 d2 e2 f2 g2 |e4 c8 f2 e2 |d4 e2 d2 c4 d2 e2 |f2 e2 d2 c2 B4 c4 |A4 B2 c2 B6 A2 |A12 ||
